lib/flags/nz-new-zealand-aotearoa.svg

<svg xmlns="http://www.w3.org/2000/svg" fill="none" aria-hidden="true" viewBox="0 0 42 30"><g id="Country=NZ - New Zealand (Aotearoa), Size=sm (36x24)" filter="url(#filter0_dd_91_26043)"><g clip-path="url(#clip0_91_26043)"><g id="flag"><mask id="mask0_91_26043" width="36" height="24" x="3" y="2" maskUnits="userSpaceOnUse" style="mask-type:alpha"><rect id="mask" width="36" height="24" x="3" y="2" fill="white"/></mask><g mask="url(#mask0_91_26043)"><g id="contents"><path id="background" fill="#2E42A5" fill-rule="evenodd" d="M3 2V26H39V2H3Z" clip-rule="evenodd"/><mask id="mask1_91_26043" width="36" height="24" x="3" y="2" maskUnits="userSpaceOnUse" style="mask-type:alpha"><path id="background_2" fill="white" fill-rule="evenodd" d="M3 2V26H39V2H3Z" clip-rule="evenodd"/></mask><g mask="url(#mask1_91_26043)"><g id="gb - large"><g id="flag_2"><rect id="mask_2" width="20.25" height="14" x="3" y="2" fill="#2B409A"/><mask id="mask2_91_26043" width="21" height="14" x="3" y="2" maskUnits="userSpaceOnUse" style="mask-type:alpha"><rect id="mask_3" width="20.25" height="14" x="3" y="2" fill="white"/></mask><g mask="url(#mask2_91_26043)"><g id="contents_2"><g id="stripe"><path id="white" fill="#F7FCFF" d="M0.745117 14.9996L5.20119 16.7368L23.351 3.88854L25.7015 1.30701L20.9364 0.726383L13.5335 6.26307L7.57493 9.99351L0.745117 14.9996Z"/><path id="red" fill="#F50100" d="M1.35498 16.217L3.62514 17.2251L24.8573 1.06738H21.6697L1.35498 16.217Z"/></g><g id="stripe_2"><path id="white_2" fill="#F7FCFF" d="M25.5049 14.9996L21.0488 16.7368L2.89897 3.88854L0.548492 1.30701L5.31362 0.726383L12.7165 6.26307L18.6751 9.99351L25.5049 14.9996Z"/><path id="red_2" fill="#F50100" d="M25.353 15.8732L23.0829 16.8813L14.042 9.96339L11.3616 9.19046L0.322518 1.31593H3.51009L14.5429 9.00356L17.4735 9.93038L25.353 15.8732Z"/></g><g id="cross"><g id="red_3"><mask id="path-11-outside-1_91_26043" width="24" height="18" x="1" y="0" fill="black" maskUnits="userSpaceOnUse"><rect width="24" height="18" x="1" fill="white"/><path fill-rule="evenodd" d="M14.2326 2H11.9826V8H3V10H11.9826V16H14.2326V10H23.25V8H14.2326V2Z" clip-rule="evenodd"/></mask><path fill="#F50100" fill-rule="evenodd" d="M14.2326 2H11.9826V8H3V10H11.9826V16H14.2326V10H23.25V8H14.2326V2Z" clip-rule="evenodd"/><path fill="#F7FCFF" d="M11.9826 2V0.5H10.4826V2H11.9826ZM14.2326 2H15.7326V0.5H14.2326V2ZM11.9826 8V9.5H13.4826V8H11.9826ZM3 8V6.5H1.5V8H3ZM3 10H1.5V11.5H3V10ZM11.9826 10H13.4826V8.5H11.9826V10ZM11.9826 16H10.4826V17.5H11.9826V16ZM14.2326 16V17.5H15.7326V16H14.2326ZM14.2326 10V8.5H12.7326V10H14.2326ZM23.25 10V11.5H24.75V10H23.25ZM23.25 8H24.75V6.5H23.25V8ZM14.2326 8H12.7326V9.5H14.2326V8ZM11.9826 3.5H14.2326V0.5H11.9826V3.5ZM13.4826 8V2H10.4826V8H13.4826ZM3 9.5H11.9826V6.5H3V9.5ZM4.5 10V8H1.5V10H4.5ZM11.9826 8.5H3V11.5H11.9826V8.5ZM13.4826 16V10H10.4826V16H13.4826ZM14.2326 14.5H11.9826V17.5H14.2326V14.5ZM12.7326 10V16H15.7326V10H12.7326ZM23.25 8.5H14.2326V11.5H23.25V8.5ZM21.75 8V10H24.75V8H21.75ZM14.2326 9.5H23.25V6.5H14.2326V9.5ZM12.7326 2V8H15.7326V2H12.7326Z" mask="url(#path-11-outside-1_91_26043)"/></g></g></g></g></g></g><g id="mark 2"><g id="Combined Shape"><path fill="#F50100" fill-rule="evenodd" d="M30.1126 9.47043L29.8204 10.9845L31.3501 10.2696L32.8797 10.9845L32.5876 9.47043L33.8251 8.3982L32.1149 8.17731L31.3501 6.7998L30.5852 8.17731L28.8751 8.3982L30.1126 9.47043ZM25.6126 15.0704L25.3204 16.5845L26.8501 15.8696L28.3797 16.5845L28.0876 15.0704L29.3251 13.9982L27.6149 13.7773L26.8501 12.3998L26.0852 13.7773L24.3751 13.9982L25.6126 15.0704ZM29.3549 21.4633L28.976 23.4269L30.9598 22.4998L32.9436 23.4269L32.5647 21.4633L34.1696 20.0728L31.9517 19.7863L30.9598 17.9998L29.9679 19.7863L27.75 20.0728L29.3549 21.4633ZM33.1944 16.5798L33.4862 15.0675L32.2501 13.9964L33.9583 13.7758L34.7223 12.3998L35.4863 13.7758L37.1946 13.9964L35.9584 15.0675L36.2502 16.5798L34.7223 15.8658L33.1944 16.5798Z" clip-rule="evenodd"/><path fill="#F7FCFF" d="M29.8204 10.9845L29.624 10.9466L29.5497 11.3317L29.905 11.1656L29.8204 10.9845ZM30.1125 9.47043L30.3089 9.50832L30.3308 9.39491L30.2435 9.31928L30.1125 9.47043ZM31.35 10.2696L31.4347 10.0884L31.35 10.0489L31.2653 10.0884L31.35 10.2696ZM32.8796 10.9845L32.795 11.1656L33.1503 11.3317L33.076 10.9466L32.8796 10.9845ZM32.5875 9.47043L32.4565 9.31928L32.3692 9.39491L32.3911 9.50832L32.5875 9.47043ZM33.825 8.3982L33.956 8.54935L34.2933 8.25703L33.8506 8.19985L33.825 8.3982ZM32.1148 8.17731L31.94 8.27439L31.989 8.36272L32.0892 8.37566L32.1148 8.17731ZM31.35 6.7998L31.5249 6.70272L31.35 6.38779L31.1751 6.70272L31.35 6.7998ZM30.5852 8.17731L30.6108 8.37566L30.711 8.36272L30.76 8.27439L30.5852 8.17731ZM28.875 8.3982L28.8494 8.19985L28.4067 8.25703L28.744 8.54935L28.875 8.3982ZM25.3204 16.5845L25.124 16.5466L25.0497 16.9317L25.405 16.7657L25.3204 16.5845ZM25.6125 15.0704L25.8089 15.1083L25.8308 14.9949L25.7435 14.9193L25.6125 15.0704ZM26.85 15.8696L26.9347 15.6884L26.85 15.6489L26.7653 15.6884L26.85 15.8696ZM28.3796 16.5845L28.295 16.7657L28.6503 16.9317L28.576 16.5466L28.3796 16.5845ZM28.0875 15.0704L27.9565 14.9193L27.8692 14.9949L27.8911 15.1083L28.0875 15.0704ZM29.325 13.9982L29.456 14.1494L29.7933 13.857L29.3506 13.7999L29.325 13.9982ZM27.6148 13.7773L27.44 13.8744L27.489 13.9627L27.5892 13.9757L27.6148 13.7773ZM26.85 12.3998L27.0249 12.3027L26.85 11.9878L26.6751 12.3027L26.85 12.3998ZM26.0852 13.7773L26.1108 13.9757L26.211 13.9627L26.26 13.8744L26.0852 13.7773ZM24.375 13.9982L24.3494 13.7999L23.9067 13.857L24.244 14.1494L24.375 13.9982ZM28.976 23.4269L28.7796 23.389L28.7053 23.7741L29.0606 23.6081L28.976 23.4269ZM29.3548 21.4633L29.5512 21.5012L29.5731 21.3878L29.4858 21.3122L29.3548 21.4633ZM30.9597 22.4998L31.0444 22.3186L30.9597 22.2791L30.8751 22.3186L30.9597 22.4998ZM32.9435 23.4269L32.8588 23.6081L33.2142 23.7741L33.1399 23.389L32.9435 23.4269ZM32.5646 21.4633L32.4337 21.3122L32.3464 21.3878L32.3683 21.5012L32.5646 21.4633ZM34.1695 20.0728L34.3005 20.2239L34.6379 19.9316L34.1952 19.8744L34.1695 20.0728ZM31.9516 19.7863L31.7768 19.8834L31.8258 19.9717L31.926 19.9846L31.9516 19.7863ZM30.9597 17.9998L31.1346 17.9027L30.9597 17.5878L30.7849 17.9027L30.9597 17.9998ZM29.9678 19.7863L29.9935 19.9846L30.0937 19.9717L30.1427 19.8834L29.9678 19.7863ZM27.7499 20.0728L27.7243 19.8744L27.2816 19.9316L27.6189 20.2239L27.7499 20.0728ZM33.4861 15.0675L33.6825 15.1054L33.7044 14.992L33.6171 14.9163L33.4861 15.0675ZM33.1943 16.5798L32.9979 16.5419L32.9236 16.9271L33.279 16.761L33.1943 16.5798ZM32.25 13.9964L32.2244 13.7981L31.7816 13.8553L32.119 14.1476L32.25 13.9964ZM33.9583 13.7758L33.9839 13.9741L34.0841 13.9612L34.1331 13.8729L33.9583 13.7758ZM34.7222 12.3998L34.8971 12.3027L34.7222 11.9878L34.5474 12.3027L34.7222 12.3998ZM35.4862 13.7758L35.3114 13.8729L35.3604 13.9612L35.4606 13.9741L35.4862 13.7758ZM37.1945 13.9964L37.3255 14.1476L37.6628 13.8553L37.2201 13.7981L37.1945 13.9964ZM35.9584 15.0675L35.8274 14.9163L35.7401 14.992L35.762 15.1054L35.9584 15.0675ZM36.2502 16.5798L36.1655 16.761L36.5209 16.9271L36.4466 16.5419L36.2502 16.5798ZM34.7222 15.8658L34.8069 15.6846L34.7222 15.645L34.6376 15.6846L34.7222 15.8658ZM30.0167 11.0223L30.3089 9.50832L29.9161 9.43254L29.624 10.9466L30.0167 11.0223ZM31.2653 10.0884L29.7357 10.8033L29.905 11.1656L31.4347 10.4508L31.2653 10.0884ZM32.9643 10.8033L31.4347 10.0884L31.2653 10.4508L32.795 11.1656L32.9643 10.8033ZM32.3911 9.50832L32.6833 11.0223L33.076 10.9466L32.7839 9.43254L32.3911 9.50832ZM33.694 8.24704L32.4565 9.31928L32.7185 9.62159L33.956 8.54935L33.694 8.24704ZM32.0892 8.37566L33.7994 8.59655L33.8506 8.19985L32.1404 7.97895L32.0892 8.37566ZM31.1751 6.89689L31.94 8.27439L32.2897 8.08022L31.5249 6.70272L31.1751 6.89689ZM30.76 8.27439L31.5249 6.89689L31.1751 6.70272L30.4103 8.08022L30.76 8.27439ZM28.9006 8.59655L30.6108 8.37566L30.5596 7.97895L28.8494 8.19985L28.9006 8.59655ZM30.2435 9.31928L29.006 8.24704L28.744 8.54935L29.9815 9.62159L30.2435 9.31928ZM25.5167 16.6224L25.8089 15.1083L25.4161 15.0325L25.124 16.5466L25.5167 16.6224ZM26.7653 15.6884L25.2357 16.4033L25.405 16.7657L26.9347 16.0508L26.7653 15.6884ZM28.4643 16.4033L26.9347 15.6884L26.7653 16.0508L28.295 16.7657L28.4643 16.4033ZM27.8911 15.1083L28.1833 16.6224L28.576 16.5466L28.2839 15.0325L27.8911 15.1083ZM29.194 13.8471L27.9565 14.9193L28.2185 15.2216L29.456 14.1494L29.194 13.8471ZM27.5892 13.9757L29.2994 14.1966L29.3506 13.7999L27.6404 13.579L27.5892 13.9757ZM26.6751 12.4969L27.44 13.8744L27.7897 13.6802L27.0249 12.3027L26.6751 12.4969ZM26.26 13.8744L27.0249 12.4969L26.6751 12.3027L25.9103 13.6802L26.26 13.8744ZM24.4006 14.1966L26.1108 13.9757L26.0596 13.579L24.3494 13.7999L24.4006 14.1966ZM25.7435 14.9193L24.506 13.8471L24.244 14.1494L25.4815 15.2216L25.7435 14.9193ZM29.1723 23.4648L29.5512 21.5012L29.1584 21.4255L28.7796 23.389L29.1723 23.4648ZM30.8751 22.3186L28.8913 23.2457L29.0606 23.6081L31.0444 22.681L30.8751 22.3186ZM33.0282 23.2457L31.0444 22.3186L30.8751 22.681L32.8588 23.6081L33.0282 23.2457ZM32.3683 21.5012L32.7471 23.4648L33.1399 23.389L32.761 21.4255L32.3683 21.5012ZM34.0386 19.9216L32.4337 21.3122L32.6956 21.6145L34.3005 20.2239L34.0386 19.9216ZM31.926 19.9846L34.1439 20.2711L34.1952 19.8744L31.9772 19.5879L31.926 19.9846ZM30.7849 18.0969L31.7768 19.8834L32.1265 19.6892L31.1346 17.9027L30.7849 18.0969ZM30.1427 19.8834L31.1346 18.0969L30.7849 17.9027L29.793 19.6892L30.1427 19.8834ZM27.7755 20.2711L29.9935 19.9846L29.9422 19.5879L27.7243 19.8744L27.7755 20.2711ZM29.4858 21.3122L27.8809 19.9216L27.6189 20.2239L29.2239 21.6145L29.4858 21.3122ZM33.2897 15.0296L32.9979 16.5419L33.3907 16.6177L33.6825 15.1054L33.2897 15.0296ZM32.119 14.1476L33.3552 15.2186L33.6171 14.9163L32.381 13.8453L32.119 14.1476ZM33.9327 13.5774L32.2244 13.7981L32.2756 14.1948L33.9839 13.9741L33.9327 13.5774ZM34.5474 12.3027L33.7834 13.6787L34.1331 13.8729L34.8971 12.4969L34.5474 12.3027ZM35.6611 13.6787L34.8971 12.3027L34.5474 12.4969L35.3114 13.8729L35.6611 13.6787ZM37.2201 13.7981L35.5118 13.5774L35.4606 13.9741L37.1689 14.1948L37.2201 13.7981ZM36.0893 15.2186L37.3255 14.1476L37.0635 13.8453L35.8274 14.9163L36.0893 15.2186ZM36.4466 16.5419L36.1547 15.0296L35.762 15.1054L36.0538 16.6177L36.4466 16.5419ZM34.6376 16.047L36.1655 16.761L36.3349 16.3986L34.8069 15.6846L34.6376 16.047ZM33.279 16.761L34.8069 16.047L34.6376 15.6846L33.1096 16.3986L33.279 16.761Z"/></g></g></g></g></g></g></g></g><defs><filter id="filter0_dd_91_26043" width="42" height="30" x="0" y="0" color-interpolation-filters="sRGB" filterUnits="userSpaceOnUse"><feFlood flood-opacity="0" result="BackgroundImageFix"/><feColorMatrix in="SourceAlpha" result="hardAlpha" values="0 0 0 0 0 0 0 0 0 0 0 0 0 0 0 0 0 0 127 0"/><feOffset dy="1"/><feGaussianBlur stdDeviation="1"/><feColorMatrix values="0 0 0 0 0.0627451 0 0 0 0 0.0941176 0 0 0 0 0.156863 0 0 0 0.06 0"/><feBlend in2="BackgroundImageFix" result="effect1_dropShadow_91_26043"/><feColorMatrix in="SourceAlpha" result="hardAlpha" values="0 0 0 0 0 0 0 0 0 0 0 0 0 0 0 0 0 0 127 0"/><feOffset dy="1"/><feGaussianBlur stdDeviation="1.5"/><feColorMatrix values="0 0 0 0 0.0627451 0 0 0 0 0.0941176 0 0 0 0 0.156863 0 0 0 0.1 0"/><feBlend in2="effect1_dropShadow_91_26043" result="effect2_dropShadow_91_26043"/><feBlend in="SourceGraphic" in2="effect2_dropShadow_91_26043" result="shape"/></filter><clipPath id="clip0_91_26043"><rect width="36" height="24" x="3" y="2" fill="white" rx="2"/></clipPath></defs></svg>

<svg xmlns="http://www.w3.org/2000/svg" fill="none" aria-hidden="true" viewBox="0 0 42 30"><g filter="url(#a)"><g clip-path="url(#b)"><mask id="c" width="36" height="24" x="3" y="2" maskUnits="userSpaceOnUse" style="mask-type:alpha"><path fill="#fff" d="M3 2h36v24H3z"/></mask><g mask="url(#c)"><path fill="#2E42A5" fill-rule="evenodd" d="M3 2v24h36V2H3Z" clip-rule="evenodd"/><mask id="d" width="36" height="24" x="3" y="2" maskUnits="userSpaceOnUse" style="mask-type:alpha"><path fill="#fff" fill-rule="evenodd" d="M3 2v24h36V2H3Z" clip-rule="evenodd"/></mask><g mask="url(#d)"><path fill="#2B409A" d="M3 2h20.25v14H3z"/><mask id="e" width="21" height="14" x="3" y="2" maskUnits="userSpaceOnUse" style="mask-type:alpha"><path fill="#fff" d="M3 2h20.25v14H3z"/></mask><g mask="url(#e)"><path fill="#F7FCFF" d="m.745 15 4.456 1.737 18.15-12.848 2.35-2.582-4.765-.58-7.402 5.536-5.96 3.73L.746 15Z"/><path fill="#F50100" d="m1.355 16.217 2.27 1.008L24.857 1.067H21.67L1.355 16.217Z"/><path fill="#F7FCFF" d="m25.505 15-4.456 1.737L2.899 3.889.549 1.307l4.765-.58 7.402 5.536 5.96 3.73L25.504 15Z"/><path fill="#F50100" d="m25.353 15.873-2.27 1.008-9.041-6.918-2.68-.773L.322 1.316H3.51l11.033 7.688 2.93.926 7.88 5.943Z"/><mask id="f" width="24" height="18" x="1" y="0" fill="#000" maskUnits="userSpaceOnUse"><path fill="#fff" d="M1 0h24v18H1z"/><path fill-rule="evenodd" d="M14.233 2h-2.25v6H3v2h8.983v6h2.25v-6h9.017V8h-9.017V2Z" clip-rule="evenodd"/></mask><path fill="#F50100" fill-rule="evenodd" d="M14.233 2h-2.25v6H3v2h8.983v6h2.25v-6h9.017V8h-9.017V2Z" clip-rule="evenodd"/><path fill="#F7FCFF" d="M11.983 2V.5h-1.5V2h1.5Zm2.25 0h1.5V.5h-1.5V2Zm-2.25 6v1.5h1.5V8h-1.5ZM3 8V6.5H1.5V8H3Zm0 2H1.5v1.5H3V10Zm8.983 0h1.5V8.5h-1.5V10Zm0 6h-1.5v1.5h1.5V16Zm2.25 0v1.5h1.5V16h-1.5Zm0-6V8.5h-1.5V10h1.5Zm9.017 0v1.5h1.5V10h-1.5Zm0-2h1.5V6.5h-1.5V8Zm-9.017 0h-1.5v1.5h1.5V8Zm-2.25-4.5h2.25v-3h-2.25v3Zm1.5 4.5V2h-3v6h3ZM3 9.5h8.983v-3H3v3Zm1.5.5V8h-3v2h3Zm7.483-1.5H3v3h8.983v-3Zm1.5 7.5v-6h-3v6h3Zm.75-1.5h-2.25v3h2.25v-3Zm-1.5-4.5v6h3v-6h-3ZM23.25 8.5h-9.017v3h9.017v-3Zm-1.5-.5v2h3V8h-3Zm-7.517 1.5h9.017v-3h-9.017v3Zm-1.5-7.5v6h3V2h-3Z" mask="url(#f)"/></g><path fill="#F50100" fill-rule="evenodd" d="m30.113 9.47-.293 1.514 1.53-.714 1.53.715-.292-1.515 1.237-1.072-1.71-.22L31.35 6.8l-.765 1.377-1.71.221 1.238 1.072Zm-4.5 5.6-.293 1.514 1.53-.714 1.53.714-.292-1.514 1.237-1.072-1.71-.22-.765-1.378-.765 1.377-1.71.221 1.238 1.072Zm3.742 6.393-.379 1.964 1.984-.927 1.984.927-.38-1.964 1.606-1.39-2.218-.287L30.96 18l-.992 1.786-2.218.287 1.605 1.39Zm3.84-4.883.291-1.512-1.236-1.072 1.708-.22.764-1.376.764 1.376 1.709.22-1.237 1.072.292 1.512-1.528-.714-1.528.714Z" clip-rule="evenodd"/><path fill="#F7FCFF" d="m29.82 10.985-.196-.038-.074.385.355-.166-.085-.181Zm.293-1.515.196.038.022-.113-.087-.076-.131.151Zm1.237.8.085-.182-.085-.04-.085.04.085.182Zm1.53.715-.085.18.355.167-.074-.385-.196.038Zm-.293-1.515-.13-.15-.088.075.022.113.197-.038Zm1.238-1.072.131.151.337-.292-.442-.057-.026.198Zm-1.71-.22-.175.096.049.089.1.013.026-.199ZM31.35 6.8l.175-.097-.175-.315-.175.315.175.097Zm-.765 1.377.026.199.1-.013.049-.089-.175-.097Zm-1.71.221-.026-.198-.442.057.337.292.131-.15Zm-3.555 8.186-.196-.037-.074.385.355-.166-.085-.181Zm.293-1.514.196.038.022-.113-.087-.076-.131.151Zm1.237.8.085-.182-.085-.04-.085.04.085.182Zm1.53.714-.085.182.355.166-.074-.385-.196.037Zm-.293-1.514-.13-.15-.088.075.022.113.197-.038Zm1.238-1.072.131.151.337-.292-.442-.057-.026.198Zm-1.71-.22-.175.096.049.089.1.013.026-.199ZM26.85 12.4l.175-.097-.175-.315-.175.315.175.097Zm-.765 1.377.026.199.1-.013.049-.089-.175-.097Zm-1.71.221-.026-.198-.442.057.337.292.131-.15Zm4.601 9.429-.196-.038-.075.385.356-.166-.085-.181Zm.379-1.964.196.038.022-.113-.087-.076-.131.151ZM30.96 22.5l.084-.181-.084-.04-.085.04.085.18Zm1.983.927-.084.181.355.166-.074-.385-.197.038Zm-.378-1.964-.131-.15-.088.075.022.113.197-.038Zm1.605-1.39.13.15.338-.291-.443-.058-.026.199Zm-2.218-.287-.175.097.049.089.1.013.026-.199ZM30.96 18l.175-.097-.175-.315-.175.315.175.097Zm-.992 1.786.026.199.1-.013.049-.089-.175-.097Zm-2.218.287-.026-.199-.442.058.337.292.13-.151Zm5.736-5.005.197.037.021-.113-.087-.076-.13.152Zm-.292 1.512-.196-.038-.074.385.355-.166-.085-.181Zm-.944-2.584-.026-.198-.442.057.337.293.131-.152Zm1.708-.22.026.198.1-.013.05-.088-.176-.097Zm.764-1.376.175-.097-.175-.315-.175.315.175.097Zm.764 1.376-.175.097.05.088.1.013.025-.198Zm1.709.22.13.152.338-.293-.443-.057-.026.198Zm-1.237 1.072-.13-.152-.088.076.022.113.196-.037Zm.292 1.512-.084.181.355.166-.074-.385-.197.038Zm-1.528-.714.085-.181-.085-.04-.084.04.084.18Zm-4.705-4.844.292-1.514-.393-.075-.292 1.514.393.075Zm1.248-.934-1.53.715.17.363 1.53-.715-.17-.363Zm1.7.715-1.53-.715-.17.363 1.53.715.17-.363Zm-.574-1.295.292 1.514.393-.075-.292-1.514-.393.075Zm1.303-1.261-1.238 1.072.262.303 1.238-1.073-.262-.302Zm-1.605.129 1.71.22.052-.396-1.71-.221-.052.397Zm-.914-1.48.765 1.378.35-.194-.765-1.377-.35.194Zm-.415 1.378.765-1.377-.35-.194-.765 1.377.35.194Zm-1.86.323 1.71-.221-.05-.397-1.71.22.05.398Zm1.344.722-1.238-1.072-.262.302 1.238 1.073.262-.303Zm-4.727 7.303.292-1.514-.393-.075-.292 1.514.393.075Zm1.248-.934-1.53.715.17.363 1.53-.715-.17-.363Zm1.7.715-1.53-.715-.17.363 1.53.715.17-.363Zm-.574-1.295.292 1.514.393-.075-.292-1.514-.393.075Zm1.303-1.26-1.238 1.071.262.303 1.238-1.073-.262-.302Zm-1.605.128 1.71.22.052-.396-1.71-.221-.052.397Zm-.914-1.48.765 1.378.35-.194-.765-1.377-.35.194Zm-.415 1.378.765-1.377-.35-.194-.765 1.377.35.194Zm-1.86.323 1.71-.221-.05-.397-1.71.22.05.398Zm1.344.722-1.238-1.072-.262.302 1.238 1.073.262-.303Zm3.428 8.546.38-1.964-.394-.076-.378 1.964.392.076Zm1.703-1.146-1.984.927.17.362 1.983-.927-.169-.362Zm2.153.927-1.984-.927-.169.362 1.984.927.17-.362Zm-.66-1.745.38 1.964.392-.076-.379-1.963-.393.075Zm1.67-1.58-1.604 1.391.262.302 1.605-1.39-.262-.302Zm-2.112.064 2.218.286.051-.397-2.218-.286-.051.397Zm-1.141-1.888.992 1.786.35-.194-.992-1.786-.35.194Zm-.642 1.786.992-1.786-.35-.194-.992 1.786.35.194Zm-2.367.388 2.218-.286-.052-.397-2.218.286.052.397Zm1.71 1.041-1.605-1.39-.262.302 1.605 1.39.262-.302Zm3.804-6.282-.292 1.512.393.076.291-1.513-.392-.075Zm-1.171-.882 1.236 1.07.262-.302-1.236-1.07-.262.302Zm1.814-.57-1.709.22.052.397 1.708-.22-.051-.398Zm.614-1.275-.764 1.376.35.194.764-1.376-.35-.194Zm1.114 1.376-.764-1.376-.35.194.764 1.376.35-.194Zm1.56.12-1.71-.222-.05.397 1.708.22.051-.396Zm-1.132 1.42 1.236-1.071-.262-.303-1.236 1.071.262.303Zm.358 1.323-.292-1.512-.393.075.292 1.513.393-.076Zm-1.81-.495 1.529.714.169-.362-1.528-.714-.17.362Zm-1.358.714 1.528-.714-.17-.362-1.527.714.169.362Z"/></g></g></g></g><defs><clipPath id="b"><rect width="36" height="24" x="3" y="2" fill="#fff" rx="2"/></clipPath><filter id="a" width="42" height="30" x="0" y="0" color-interpolation-filters="sRGB" filterUnits="userSpaceOnUse"><feFlood flood-opacity="0" result="BackgroundImageFix"/><feColorMatrix in="SourceAlpha" result="hardAlpha" values="0 0 0 0 0 0 0 0 0 0 0 0 0 0 0 0 0 0 127 0"/><feOffset dy="1"/><feGaussianBlur stdDeviation="1"/><feColorMatrix values="0 0 0 0 0.0627451 0 0 0 0 0.0941176 0 0 0 0 0.156863 0 0 0 0.06 0"/><feBlend in2="BackgroundImageFix" result="effect1_dropShadow_91_26043"/><feColorMatrix in="SourceAlpha" result="hardAlpha" values="0 0 0 0 0 0 0 0 0 0 0 0 0 0 0 0 0 0 127 0"/><feOffset dy="1"/><feGaussianBlur stdDeviation="1.5"/><feColorMatrix values="0 0 0 0 0.0627451 0 0 0 0 0.0941176 0 0 0 0 0.156863 0 0 0 0.1 0"/><feBlend in2="effect1_dropShadow_91_26043" result="effect2_dropShadow_91_26043"/><feBlend in="SourceGraphic" in2="effect2_dropShadow_91_26043" result="shape"/></filter></defs></svg>
